blockchains/ethereum/assets/0xaAAf91D9b90dF800Df4F55c205fd6989c977E73a/logo.svg

<svg fill="none" height="250" viewBox="0 0 250 250" width="250" xmlns="http://www.w3.org/2000/svg"><g fill="#24dd7b"><path d="m104.107 23.6607 53.572-23.6607-.447 62.5h67.411v43.304h-67.857v75c0 22.767 37.946 25.446 52.232 17.857l12.946 39.285c-31.696 18.75-118.303 14.286-118.303-56.696v-157.5893z"/><path d="m54.1071 117.413c13.3141 0 24.1072-13.192 24.1072-29.4643 0-16.2727-10.7931-29.4643-24.1072-29.4643-13.314 0-24.1071 13.1916-24.1071 29.4643 0 16.2723 10.7931 29.4643 24.1071 29.4643z"/></g></svg>

<svg width="250" height="250" viewBox="0 0 250 250" fill="none" xmlns="http://www.w3.org/2000/svg">
<path d="M104.107 23.6607L157.679 0L157.232 62.5H224.643V105.804H156.786V180.804C156.786 203.571 194.732 206.25 209.018 198.661L221.964 237.946C190.268 256.696 103.661 252.232 103.661 181.25V23.6607H104.107Z" fill="#24DD7B"/>
<path d="M54.1071 117.413C67.4212 117.413 78.2143 104.221 78.2143 87.9487C78.2143 71.676 67.4212 58.4844 54.1071 58.4844C40.7931 58.4844 30 71.676 30 87.9487C30 104.221 40.7931 117.413 54.1071 117.413Z" fill="#24DD7B"/>
</svg>
